X: 79
T:Rigadoon,A. JaW.079
M:C|
Q:180
S:James Winder Ms, Lancashire, 1835-41
R:Rigadoon
O:England
A:Wyresdale,Lancashire
H:1/8
Z:vmp.Chris Partington, Aug 2004
K:G
B2|e2^de B2e2|f2efB2f2|g2fg efga|b6:||:ba|^g2fef2^g2|!
a4c'2a2|f2gae2=fg|d2efA2Bc|B^deFF4|E6:|]
